usr/share/icons/big-icons/symbolic/actions/run-build-install.svg

<svg xmlns="http://www.w3.org/2000/svg" viewBox="0 0 16 16">
  <defs id="defs3051">
    <style type="text/css" id="current-color-scheme">
      .ColorScheme-Text {
        color:#eff0f1;
      }
      </style>
  </defs>
 <path 
     style="fill:currentColor;fill-opacity:1;stroke:none" 
     d="M 7 2 L 7 3.1015625 C 6.374 3.2305625 5.7790937 3.4790312 5.2460938 3.8320312 L 4.4648438 3.0507812 L 3.0507812 4.4648438 L 3.8320312 5.2460938 C 3.4800313 5.7790937 3.2334687 6.374 3.1054688 7 L 2 7 L 2 9 L 3.1015625 9 C 3.2305625 9.626 3.4790312 10.220906 3.8320312 10.753906 L 3.0507812 11.535156 L 4.4648438 12.949219 L 5.2460938 12.167969 C 5.7790938 12.519969 6.374 12.766531 7 12.894531 L 7 14 L 8 14 L 8 12 C 6.919 12 5.8838594 11.562109 5.1308594 10.787109 C 4.4058594 10.040109 4 9.041 4 8 C 4 6.919 4.4378906 5.8838594 5.2128906 5.1308594 C 5.9598906 4.4058594 6.959 4 8 4 C 9.081 4 10.116141 4.4378906 10.869141 5.2128906 C 11.594141 5.9598906 12 6.959 12 8 L 14 8 L 14 7 L 12.898438 7 C 12.769438 6.374 12.520969 5.7790937 12.167969 5.2460938 L 12.949219 4.4648438 L 11.535156 3.0507812 L 10.753906 3.8320312 C 10.220906 3.4800313 9.626 3.2334687 9 3.1054688 L 9 2 L 7 2 z M 7 6 L 7 10 L 10 8 L 7 6 z M 11 9 L 11 13.085938 L 9.3789062 11.464844 L 8.671875 12.171875 L 11.5 15 L 13.378906 13.121094 L 14.328125 12.171875 L 13.621094 11.464844 L 12 13.085938 L 12 9 L 11 9 z "
     class="ColorScheme-Text"/>
</svg>

<svg xmlns="http://www.w3.org/2000/svg" viewBox="0 0 16 16">
<defs id="defs3051">
<style id="current-color-scheme" type="text/css">
.ColorScheme-Text{color:#fcfcfc}
</style>
</defs>
<path d="M7 2v1.102a5 5 0 0 0-1.754.73l-.781-.781L3.05 4.465l.781.781A5 5 0 0 0 3.105 7H2v2h1.102c.129.626.377 1.22.73 1.754l-.781.781 1.414 1.414.781-.781A5 5 0 0 0 7 12.895V14h1v-2a4.001 4.001 0 1 1 4-4h2V7h-1.102a5 5 0 0 0-.73-1.754l.781-.781-1.414-1.414-.781.781A5 5 0 0 0 9 3.105V2zm0 4v4l3-2zm4 3v4.086l-1.621-1.621-.707.707L11.5 15l1.879-1.879.95-.95-.708-.706L12 13.085V9z" class="ColorScheme-Text" style="fill:currentColor;fill-opacity:1;stroke:none"/>
</svg>
